.local/share/icons/Gruvbox-Plus-Dark/apps/16/athena.svg

<svg width="16" height="16" version="1.1" xmlns="http://www.w3.org/2000/svg">
  <defs>
    <style id="current-color-scheme" type="text/css">.ColorScheme-Text { color:#ebdbb2; } .ColorScheme-Highlight { color:#458588; }</style>
  </defs>
  <path class="ColorScheme-Text" d="m7.242 2.767 0.205 0.467c-1.24 0.084-0.997 0.337-0.997 0.337s-1.429 0.265-1.429 0.463v0.017c-0.287 0.139-0.568 0.333-0.837 0.543-3.596 4.832 0.252 5.95-0.602 8.756-0.185 0.609-0.959 1.644-0.959 1.644s1.56 0.194 2.204-1.632c0.521-1.476-1.245-4.446 0.071-5.774 1.867-1.884 3.251 1.997 2.667 2.535-0.594 0.539-0.446 0.686-0.446 0.686l0.883 1.783 0.878-1.783s0.152-0.147-0.441-0.686c-0.589-0.538 0.799-4.423 2.662-2.535 1.321 1.333-0.45 4.298 0.076 5.774 0.644 1.825 2.204 1.632 2.204 1.632s-0.77-1.043-0.96-1.644c-0.853-2.801 2.983-3.92-0.609-8.756-0.269-0.203-0.551-0.4-0.832-0.538v-0.018c0-0.202-1.426-0.463-1.426-0.463s0.245-0.252-1.001-0.337l0.202-0.467-0.755-1.771z" fill="currentColor"/>
</svg>

<svg xmlns="http://www.w3.org/2000/svg" style="isolation:isolate" width="16" height="16" viewBox="0 0 16 16">
 <defs>
  <style id="current-color-scheme" type="text/css">
   .ColorScheme-Text { color:#ebdbb2; } .ColorScheme-Highlight { color:#458588; }
  </style>
  <linearGradient id="arrongin" x1="0%" x2="0%" y1="0%" y2="100%">
   <stop offset="0%" style="stop-color:#d79921; stop-opacity:1"/>
   <stop offset="100%" style="stop-color:#b57614; stop-opacity:1"/>
  </linearGradient>
  <linearGradient id="aurora" x1="0%" x2="0%" y1="0%" y2="100%">
   <stop offset="0%" style="stop-color:#83a598; stop-opacity:1"/>
   <stop offset="100%" style="stop-color:#b16286; stop-opacity:1"/>
  </linearGradient>
  <linearGradient id="fitdance" x1="0%" x2="0%" y1="0%" y2="100%">
   <stop offset="0%" style="stop-color:#8ec07c; stop-opacity:1"/>
   <stop offset="100%" style="stop-color:#458588; stop-opacity:1"/>
  </linearGradient>
  <linearGradient id="oomox" x1="0%" x2="0%" y1="0%" y2="100%">
   <stop offset="0%" style="stop-color:#458588; stop-opacity:1"/>
   <stop offset="100%" style="stop-color:#928374; stop-opacity:1"/>
  </linearGradient>
  <linearGradient id="rainblue" x1="0%" x2="0%" y1="0%" y2="100%">
   <stop offset="0%" style="stop-color:#b8bb26; stop-opacity:1"/>
   <stop offset="100%" style="stop-color:#076678; stop-opacity:1"/>
  </linearGradient>
  <linearGradient id="sunrise" x1="0%" x2="0%" y1="0%" y2="100%">
   <stop offset="0%" style="stop-color: #fe8019; stop-opacity:1"/>
   <stop offset="100%" style="stop-color: #fabd2f; stop-opacity:1"/>
  </linearGradient>
  <linearGradient id="telinkrin" x1="0%" x2="0%" y1="0%" y2="100%">
   <stop offset="0%" style="stop-color: #83a598; stop-opacity:1"/>
   <stop offset="100%" style="stop-color: #83a598; stop-opacity:1"/>
  </linearGradient>
  <linearGradient id="60spsycho" x1="0%" x2="0%" y1="0%" y2="100%">
   <stop offset="0%" style="stop-color: #fb4934; stop-opacity:1"/>
   <stop offset="25%" style="stop-color: #fabd2f; stop-opacity:1"/>
   <stop offset="50%" style="stop-color: #fe8019; stop-opacity:1"/>
   <stop offset="100%" style="stop-color: #689d6a; stop-opacity:1"/>
  </linearGradient>
  <linearGradient id="90ssummer" x1="0%" x2="0%" y1="0%" y2="100%">
   <stop offset="0%" style="stop-color: #b16286; stop-opacity:1"/>
   <stop offset="20%" style="stop-color: #8ec07c; stop-opacity:1"/>
   <stop offset="50%" style="stop-color: #fabd2f; stop-opacity:1"/>
   <stop offset="100%" style="stop-color: #458588; stop-opacity:1"/>
  </linearGradient>
  <linearGradient id="cyberneon" x1="0%" x2="0%" y1="0%" y2="100%">
    <stop offset="0" style="stop-color:#83a598; stop-opacity:1"/>
    <stop offset="1" style="stop-color:#b16286; stop-opacity:1"/>
  </linearGradient>
  <clipPath id="_clipPath_8tKsPn1UYZaTt3zDPsM7B4Dg0sPOExye">
   <rect width="16" height="16"/>
  </clipPath>
 </defs>
 <g clip-path="url(#_clipPath_8tKsPn1UYZaTt3zDPsM7B4Dg0sPOExye)">
  <rect style="fill:currentColor" class="ColorScheme-Text" width="4.625" height="3.594" x="17.09" y="-.09" transform="matrix(1,0,0,1,0,0)"/>
  <path style="fill:currentColor" class="ColorScheme-Text" d="M 8.011 1 L 7.242 2.767 L 7.447 3.234 C 6.207 3.318 6.45 3.571 6.45 3.571 C 6.45 3.571 5.021 3.836 5.021 4.034 L 5.021 4.051 C 4.734 4.19 4.453 4.384 4.184 4.594 C 0.588 9.426 4.436 10.544 3.582 13.35 C 3.397 13.959 2.623 14.994 2.623 14.994 C 2.623 14.994 4.183 15.188 4.827 13.362 C 5.348 11.886 3.582 8.916 4.898 7.588 C 6.765 5.704 8.149 9.585 7.565 10.123 C 6.971 10.662 7.119 10.809 7.119 10.809 L 8.002 12.592 L 8.88 10.809 C 8.88 10.809 9.032 10.662 8.439 10.123 C 7.85 9.585 9.238 5.7 11.101 7.588 C 12.422 8.921 10.651 11.886 11.177 13.362 C 11.821 15.187 13.381 14.994 13.381 14.994 C 13.381 14.994 12.611 13.951 12.421 13.35 C 11.568 10.549 15.404 9.43 11.812 4.594 C 11.543 4.391 11.261 4.194 10.98 4.056 L 10.98 4.038 C 10.98 3.836 9.554 3.575 9.554 3.575 C 9.554 3.575 9.799 3.323 8.553 3.238 L 8.755 2.771 L 7.99 1.004"/>
 </g>
</svg>
